Yaru++/apps/scalable/gtkpod.svg

<svg height="256" width="256" xmlns="http://www.w3.org/2000/svg" xmlns:xlink="http://www.w3.org/1999/xlink"><linearGradient id="a" gradientUnits="userSpaceOnUse" x1="88" x2="488" y1="88" y2="488"><stop offset="0" stop-opacity=".588235"/><stop offset=".88" stop-opacity="0"/><stop offset="1"/></linearGradient><filter id="b" color-interpolation-filters="sRGB" height="1.088" width="1.106" x="-.05" y="-.04"><feGaussianBlur stdDeviation="8.48"/></filter><filter id="c" color-interpolation-filters="sRGB" height="1.022" width="1.026" x="-.01" y="-.01"><feGaussianBlur stdDeviation="2.12"/></filter><path d="m189.84323 74c-70.59344 0-78.18921 7.250835-77.84323 77.98706v146.01294 146.01294c-.34598 70.73623 7.24979 77.98706 77.84323 77.98706h196.31354c70.59344 0 76.00668-7.27384 77.84323-77.98706v-146.01294-146.01294c0-70.737067-7.24979-77.98706-77.84323-77.98706z" filter="url(#c)" opacity=".1" transform="matrix(.5 0 0 .5 -16.666462 -20.825235)"/><path d="m189.84323 74c-70.59344 0-78.18921 7.250835-77.84323 77.98706v146.01294 146.01294c-.34598 70.73623 7.24979 77.98706 77.84323 77.98706h196.31354c70.59344 0 77.84323-7.24999 77.84323-77.98706v-146.01294-146.01294c0-70.737067-7.24979-77.98706-77.84323-77.98706z" fill="url(#a)" filter="url(#b)" opacity=".3" transform="matrix(.5 0 0 .5 -16.666462 -20.825235)"/><path d="m77.145138 13.174766c-36.098811 0-39.983003 3.690157-39.806081 39.689841v74.310163 74.31016c-.176922 35.99969 3.70727 39.68984 39.806081 39.68984h100.387322c36.09881 0 39.80608-3.68973 39.80608-39.68984v-74.31016-74.310163c0-36.000113-3.70727-39.689841-39.80608-39.689841z" opacity=".1"/><path d="m176.40652 15.174766c35.29673 0 39.09461 3.625417 38.92162 38.993529v73.006475 73.00647c.17299 35.36812-3.62489 38.99353-38.92162 38.99353h-98.156762c-35.296716 0-38.921616-3.625-38.921616-38.99353v-73.00647-73.006475c0-35.368533 3.6249-38.993529 38.921616-38.993529z" fill="#b3b3b3"/><rect fill="#fff" height="80" opacity=".2" rx="8" width="136" x="59.33" y="37.17"/><rect fill="#1463a5" height="80" rx="8" width="136" x="59.33" y="35.17"/><path d="m78.255418 15.174766c-35.296728 0-39.09487 3.626028-38.92188 38.99414v2c-.17299-35.368112 3.625152-38.994141 38.92188-38.994141h98.156242c35.29673 0 38.92188 3.625608 38.92188 38.994141v-2c0-35.368533-3.62515-38.99414-38.92188-38.99414z" fill="#fff" opacity=".3"/><path d="m78.260818 239.17477c-35.296731 0-39.094875-3.62603-38.921885-38.99414v-2c-.17299 35.36811 3.625154 38.99414 38.921885 38.99414h98.156242c35.29673 0 38.92188-3.62561 38.92188-38.99414v2c0 35.36853-3.62515 38.99414-38.92188 38.99414z" opacity=".2"/><path d="m127.33203 132.41211a47.158112 47.158112 0 0 0 -47.158202 47.1582 47.158112 47.158112 0 0 0 47.158202 47.15821 47.158112 47.158112 0 0 0 47.1582-47.15821 47.158112 47.158112 0 0 0 -47.1582-47.1582zm0 23.38477a23.579056 23.579056 0 0 1 23.57813 23.57812 23.579056 23.579056 0 0 1 -23.57813 23.58008 23.579056 23.579056 0 0 1 -23.58008-23.58008 23.579056 23.579056 0 0 1 23.58008-23.57812z" fill="#fff" transform="translate(-.00119 -4.926247)"/><path d="m96.550781 56.892578c-4.61539-.283582-4.939474 5.162935-2.537109 6.222656.45171.27389 9.017158 2.834654 10.257808 3.626954-.6761 1.097409-1.68866 3.477753-2.08789 4.246093-.28296.540826.11218 31.339079-.02734 43.701169 3.6573-.0595.94556-.03797 5.49805-.04297.0952-13.4265-.44429-41.670223.02148-42.523433 1.30741-2.39475 6.14128-2.641425 6.33008-2.578125 4.39345 1.47164 10.59655 3.279064 10.70312 3.871094.46528 2.57938 6.71105 6.754032 9.62891 1.914062 4.01721-6.66345-3.39244-9.691467-6.58008-7.710937-.15114.09391-15.81126-5.46255-28.960935-10.22461-.839092-.303867-1.586752-.461441-2.246094-.501953z" stroke-width="5.409655"/><path d="m190.06836 114.61914c.11971-.04382.26394-.02688.38086-.07617.95775-.40375 1.81997-.98794 2.54297-1.71094s1.30718-1.58522 1.71093-2.54297c.31276-.74189.41013-1.57825.48633-2.41601.09477-7.34497-.00976-18.923831-.00976-18.923831l-6.43164-3.574219c-6.94135-4.09311-7.46898-5.398234-5.21094-12.902344 1.58671-5.27317 1.87512-16.43987.51562-19.96875-1.95868-5.08427-11.81288-6.952225-19.44921-7.916015-5.85086-.73847-5.51956 2.40136-4.8379 3.65039-5.43913 1.93931-7.43659 5.406795-7.9121 7.521485-5.60738 5.77589-6.0137 7.69384-6.47461 8.58789-.2186.42385-.48128.815564 2.4707 2.246094 1.02832 1.7326-1.37049 2.517064-.75195 3.089844 3.63935 3.37043 1.62506 4.131725-.31836 4.353515-1.3174.15028-.00256 1.611652-.43555 3.425782-1.17491 2.54633-.89771 3.563321 1.83594 4.857421 2.35276 1.11379 11.72305.835774 9.61133 4.464844-.80766 1.38795-3.58142 4.300303-1.75977 5.726563 6.19708 4.85191 3.25194 4.891864.94531 7.919921-5.42572 7.12267-5.12098 12.83042-5.14258 13.93555l22.18164.17773c9.75233 0 12.59153.0462 16.05274.07422z" stroke-width="5.409655"/><path d="m64.3125 114.56445c.932533.37913 1.945729.60547 3.017578.60547h120.000002c1.108 0 2.16139-.2232 3.11914-.62695s1.81997-.98794 2.54297-1.71094 1.30718-1.58522 1.71093-2.54297c.40376-.95775.62696-2.01114.62696-3.11914v-63.999998c0-1.108-.2232-2.161391-.62696-3.119141-.40375-.95775-.98793-1.819969-1.71093-2.542969-.723-.722999-1.58522-1.307187-2.54297-1.710937s-2.01114-.626953-3.11914-.626953h-40.00977c-33.98805 32.507065-70.66207 67.812578-83.00781 79.394528z" fill="#fff" opacity=".15"/></svg>

<?xml version="1.0" encoding="UTF-8" standalone="no"?>
<svg
   xmlns:osb="http://www.openswatchbook.org/uri/2009/osb"
   xmlns:dc="http://purl.org/dc/elements/1.1/"
   xmlns:cc="http://creativecommons.org/ns#"
   xmlns:rdf="http://www.w3.org/1999/02/22-rdf-syntax-ns#"
   xmlns:svg="http://www.w3.org/2000/svg"
   xmlns="http://www.w3.org/2000/svg"
   xmlns:xlink="http://www.w3.org/1999/xlink"
   xmlns:sodipodi="http://sodipodi.sourceforge.net/DTD/sodipodi-0.dtd"
   xmlns:inkscape="http://www.inkscape.org/namespaces/inkscape"
   width="256"
   height="256"
   version="1.1"
   id="svg111"
   sodipodi:docname="gtkpod.svg"
   inkscape:version="0.92.4 (5da689c313, 2019-01-14)">
  <metadata
     id="metadata115">
    <rdf:RDF>
      <cc:Work
         rdf:about="">
        <dc:format>image/svg+xml</dc:format>
        <dc:type
           rdf:resource="http://purl.org/dc/dcmitype/StillImage" />
        <dc:title />
      </cc:Work>
    </rdf:RDF>
  </metadata>
  <sodipodi:namedview
     pagecolor="#ffffff"
     bordercolor="#666666"
     borderopacity="1"
     objecttolerance="10"
     gridtolerance="10"
     guidetolerance="10"
     inkscape:pageopacity="0"
     inkscape:pageshadow="2"
     inkscape:window-width="960"
     inkscape:window-height="1016"
     id="namedview113"
     showgrid="false"
     inkscape:zoom="2.3060004"
     inkscape:cx="113.40867"
     inkscape:cy="126.92923"
     inkscape:window-x="0"
     inkscape:window-y="27"
     inkscape:window-maximized="0"
     inkscape:current-layer="svg111" />
  <defs
     id="defs83">
    <linearGradient
       id="linearGradient5606"
       osb:paint="solid">
      <stop
         id="stop5608"
         offset="0"
         style="stop-color:#000000" />
    </linearGradient>
    <linearGradient
       id="linearGradient4526"
       osb:paint="solid">
      <stop
         id="stop4528"
         offset="0"
         style="stop-color:#ffffff" />
    </linearGradient>
    <linearGradient
       id="linearGradient3600-4"
       osb:paint="gradient">
      <stop
         id="stop3602-7"
         offset="0"
         style="stop-color:#f4f4f4" />
      <stop
         id="stop3604-6"
         offset="1"
         style="stop-color:#dbdbdb" />
    </linearGradient>
    <filter
       style="color-interpolation-filters:sRGB"
       id="filter1507"
       width="1.12"
       height="1.12"
       x="-.06"
       y="-.06">
      <feGaussianBlur
         id="feGaussianBlur1509"
         stdDeviation="1.2" />
    </filter>
    <filter
       style="color-interpolation-filters:sRGB"
       id="filter1496"
       width="1.103"
       height="1.144"
       x="-.05"
       y="-.07">
      <feGaussianBlur
         id="feGaussianBlur1498"
         stdDeviation="1.2" />
    </filter>
    <linearGradient
       id="linearGradient4358"
       x1="88"
       x2="488"
       y1="88"
       y2="488"
       gradientUnits="userSpaceOnUse"
       xlink:href="#linearGradient4360" />
    <linearGradient
       id="linearGradient4360">
      <stop
         id="stop4362"
         offset="0"
         style="stop-color:#000000;stop-opacity:0.58823532" />
      <stop
         style="stop-color:#000000;stop-opacity:0"
         id="stop4364"
         offset=".88" />
      <stop
         id="stop4366"
         offset="1"
         style="stop-color:#000000" />
    </linearGradient>
    <filter
       style="color-interpolation-filters:sRGB"
       id="filter4380"
       width="1.106"
       height="1.088"
       x="-.05"
       y="-.04">
      <feGaussianBlur
         id="feGaussianBlur4382"
         stdDeviation="8.48" />
    </filter>
    <filter
       style="color-interpolation-filters:sRGB"
       id="filter4346"
       width="1.026"
       height="1.022"
       x="-.01"
       y="-.01">
      <feGaussianBlur
         id="feGaussianBlur4348"
         stdDeviation="2.12" />
    </filter>
    <linearGradient
       gradientTransform="translate(-250.99225,-5.6832397)"
       id="linearGradient871"
       x1="78.254997"
       x2="187.673"
       y1="15.175"
       y2="237.276"
       gradientUnits="userSpaceOnUse"
       xlink:href="#linearGradient876" />
    <linearGradient
       id="linearGradient876">
      <stop
         style="stop-color:#b3b3b3"
         id="stop872"
         offset="0" />
      <stop
         style="stop-color:#d9d9d9"
         id="stop874"
         offset="1" />
    </linearGradient>
    <linearGradient
       id="linearGradient9203">
      <stop
         style="stop-color: rgb(249, 249, 249); stop-opacity: 1;"
         offset="0"
         id="stop9205" />
      <stop
         style="stop-color: rgb(242, 242, 242); stop-opacity: 1;"
         offset="1.0000000"
         id="stop9207" />
    </linearGradient>
    <linearGradient
       xlink:href="#linearGradient1007"
       gradientUnits="userSpaceOnUse"
       gradientTransform="matrix(-0.93750002,0,0,0.93750002,270.32793,-2.5808515)"
       y2="215.733"
       y1="215.733"
       x2="314.133"
       x1="-10.133"
       id="linearGradient1009" />
    <linearGradient
       id="linearGradient1007">
      <stop
         offset="0"
         id="stop1002"
         style="stop-color:#000000;stop-opacity:0.09090909" />
      <stop
         style="stop-color:#000000;stop-opacity:0.84848487"
         offset=".5"
         id="stop1011" />
      <stop
         offset="1"
         id="stop1004"
         style="stop-color:#000000;stop-opacity:0" />
    </linearGradient>
    <filter
       y="-.03"
       x="-.02"
       height="1.065"
       width="1.038"
       id="filter1033"
       style="color-interpolation-filters:sRGB">
      <feGaussianBlur
         stdDeviation="2.698"
         id="feGaussianBlur1035" />
    </filter>
    <filter
       y="-.01"
       x="-.01"
       height="1.025"
       width="1.023"
       id="filter965"
       style="color-interpolation-filters:sRGB">
      <feGaussianBlur
         stdDeviation=".76"
         id="feGaussianBlur967" />
    </filter>
    <linearGradient
       xlink:href="#linearGradient1061"
       gradientUnits="userSpaceOnUse"
       gradientTransform="rotate(90,154.07669,129.74855)"
       y2="-5.118"
       y1="298.462"
       x2="292.575"
       x1="24.987"
       id="linearGradient4886" />
    <linearGradient
       id="linearGradient1061">
      <stop
         offset="0"
         id="stop1057"
         style="stop-color:#80a3fa" />
      <stop
         offset="1"
         id="stop1059"
         style="stop-color:#a2bcfe" />
    </linearGradient>
    <linearGradient
       xlink:href="#linearGradient4360"
       gradientUnits="userSpaceOnUse"
       gradientTransform="rotate(-90,287.9946,298)"
       y2="488"
       y1="88"
       x2="488"
       x1="88"
       id="linearGradient4358-3" />
    <filter
       y="-.04"
       x="-.05"
       height="1.088"
       width="1.106"
       id="filter4380-9"
       style="color-interpolation-filters:sRGB">
      <feGaussianBlur
         stdDeviation="8.48"
         id="feGaussianBlur4382-1" />
    </filter>
    <filter
       y="-.01"
       x="-.01"
       height="1.022"
       width="1.026"
       id="filter4346-2"
       style="color-interpolation-filters:sRGB">
      <feGaussianBlur
         stdDeviation="2.12"
         id="feGaussianBlur4348-7" />
    </filter>
    <clipPath
       clipPathUnits="userSpaceOnUse"
       id="clipPath1094">
      <path
         id="path319"
         d="M 188.96875,43.999998 C 261.6174,43.999998 272,54.356613 272,126.9375 v 58.125 C 272,257.64309 261.6174,268 188.96875,268 h -73.9375 C 42.3826,268 32,257.64309 32,185.0625 v -58.125 C 32,54.356613 42.3826,43.999998 115.03125,43.999998 Z"
         style="fill:url(#linearGradient1098)" />
    </clipPath>
    <clipPath
       clipPathUnits="userSpaceOnUse"
       id="clipPath1100">
      <path
         id="path322"
         d="M 188.96875,44 C 261.6174,44 272,54.356615 272,126.9375 v 58.125 C 272,257.64309 261.6174,268 188.96875,268 h -73.9375 C 42.3826,268 32,257.64309 32,185.0625 v -58.125 C 32,54.356615 42.3826,44 115.03125,44 Z"
         style="fill:url(#linearGradient1104)" />
    </clipPath>
    <filter
       y="-.01"
       x="-.01"
       height="1.024"
       width="1.024"
       id="filter11191"
       style="color-interpolation-filters:sRGB">
      <feGaussianBlur
         stdDeviation="1.12"
         id="feGaussianBlur11193" />
    </filter>
    <filter
       y="-.05"
       x="-.05"
       height="1.096"
       width="1.096"
       id="filter11210"
       style="color-interpolation-filters:sRGB">
      <feGaussianBlur
         stdDeviation="4.48"
         id="feGaussianBlur11212" />
    </filter>
    <linearGradient
       xlink:href="#linearGradient1488"
       gradientUnits="userSpaceOnUse"
       gradientTransform="matrix(2.1947377,0,0,2.1923444,-10.836741,-394.1216)"
       y2="262.805"
       y1="210.425"
       x2="91.624"
       x1="33.076"
       id="linearGradient1490" />
    <linearGradient
       id="linearGradient1488">
      <stop
         offset="0"
         id="stop1484"
         style="stop-color:#ff8b00" />
      <stop
         offset="1"
         id="stop1486"
         style="stop-color:#ffda2c" />
    </linearGradient>
    <filter
       style="color-interpolation-filters:sRGB"
       y="-.01"
       x="-.01"
       height="1.023"
       width="1.026"
       id="filter4460">
      <feGaussianBlur
         stdDeviation="1.133"
         id="feGaussianBlur7" />
    </filter>
    <linearGradient
       gradientUnits="userSpaceOnUse"
       gradientTransform="matrix(0.43877818,0,0,0.43877818,20.296981,11.211784)"
       y2="375"
       y1="138"
       x2="256"
       x1="256"
       id="linearGradient4413">
      <stop
         offset="0"
         id="stop10"
         style="stop-color:#000000;stop-opacity:0" />
      <stop
         offset=".505"
         id="stop12"
         style="stop-color:#000000" />
      <stop
         offset="1"
         id="stop14"
         style="stop-color:#000000;stop-opacity:0" />
    </linearGradient>
  </defs>
  <path
     style="opacity:0.1;filter:url(#filter4346)"
     d="M 189.84323,74 C 119.24979,74 111.65402,81.250835 112,151.98706 V 298 444.01294 C 111.65402,514.74917 119.24979,522 189.84323,522 H 386.15677 C 456.75021,522 462.16345,514.72616 464,444.01294 V 298 151.98706 C 464,81.249993 456.75021,74 386.15677,74 Z"
     transform="matrix(0.5,0,0,0.5,-16.666462,-20.825235)"
     id="path85" />
  <path
     d="M 189.84323,74 C 119.24979,74 111.65402,81.250835 112,151.98706 V 298 444.01294 C 111.65402,514.74917 119.24979,522 189.84323,522 H 386.15677 C 456.75021,522 464,514.75001 464,444.01294 V 298 151.98706 C 464,81.249993 456.75021,74 386.15677,74 Z"
     transform="matrix(0.5,0,0,0.5,-16.666462,-20.825235)"
     style="opacity:0.3;fill:url(#linearGradient4358);filter:url(#filter4380)"
     id="path87" />
  <path
     style="opacity:0.1"
     d="m 77.145138,13.174766 c -36.098811,0 -39.983003,3.690157 -39.806081,39.689841 v 74.310163 74.31016 c -0.176922,35.99969 3.70727,39.68984 39.806081,39.68984 H 177.53246 c 36.09881,0 39.80608,-3.68973 39.80608,-39.68984 V 127.17477 52.864607 c 0,-36.000113 -3.70727,-39.689841 -39.80608,-39.689841 z"
     id="path89" />
  <path
     style="fill:#b3b3b3;fill-opacity:1"
     d="m 176.40652,15.174766 c 35.29673,0 39.09461,3.625417 38.92162,38.993529 v 73.006475 73.00647 c 0.17299,35.36812 -3.62489,38.99353 -38.92162,38.99353 H 78.249758 c -35.296716,0 -38.921616,-3.625 -38.921616,-38.99353 V 127.17477 54.168295 c 0,-35.368533 3.6249,-38.993529 38.921616,-38.993529 z"
     id="path91" />
  <rect
     style="opacity:0.2;fill:#ffffff"
     width="136"
     height="80"
     x="59.33"
     y="37.17"
     rx="8"
     ry="8"
     id="rect103" />
  <rect
     width="136"
     height="80"
     x="59.33"
     y="35.17"
     rx="8"
     ry="8"
     style="fill:#1463a5;fill-opacity:1"
     id="rect105" />
  <path
     style="opacity:0.3;fill:#ffffff"
     d="m 78.255418,15.174766 c -35.296728,0 -39.09487,3.626028 -38.92188,38.99414 v 2 C 39.160548,20.800794 42.95869,17.174765 78.255418,17.174765 h 98.156242 c 35.29673,0 38.92188,3.625608 38.92188,38.994141 v -2 c 0,-35.368533 -3.62515,-38.99414 -38.92188,-38.99414 z"
     id="path107" />
  <path
     style="opacity:0.2"
     d="m 78.260818,239.17477 c -35.296731,0 -39.094875,-3.62603 -38.921885,-38.99414 v -2 c -0.17299,35.36811 3.625154,38.99414 38.921885,38.99414 h 98.156242 c 35.29673,0 38.92188,-3.62561 38.92188,-38.99414 v 2 c 0,35.36853 -3.62515,38.99414 -38.92188,38.99414 z"
     id="path109" />
  <g
     style="enable-background:new"
     transform="translate(1.4278098,-4.9262474)"
     id="g55">
    <path
       inkscape:connector-curvature="0"
       style="fill:#ffffff"
       d="m 127.33203,132.41211 a 47.158112,47.158112 0 0 0 -47.158202,47.1582 47.158112,47.158112 0 0 0 47.158202,47.15821 47.158112,47.158112 0 0 0 47.1582,-47.15821 47.158112,47.158112 0 0 0 -47.1582,-47.1582 z m 0,23.38477 a 23.579056,23.579056 0 0 1 23.57813,23.57812 23.579056,23.579056 0 0 1 -23.57813,23.58008 23.579056,23.579056 0 0 1 -23.58008,-23.58008 23.579056,23.579056 0 0 1 23.58008,-23.57812 z"
       transform="translate(-1.4289999)"
       id="path53" />
  </g>
  <path
     style="display:inline;fill:#000000;stroke-width:5.40965509"
     d="M 96.550781 56.892578 C 91.935391 56.608996 91.611307 62.055513 94.013672 63.115234 C 94.465382 63.389124 103.03083 65.949888 104.27148 66.742188 C 103.59538 67.839597 102.58282 70.219941 102.18359 70.988281 C 101.90063 71.529107 102.29577 102.32736 102.15625 114.68945 C 105.81355 114.62995 103.10181 114.65148 107.6543 114.64648 C 107.7495 101.21998 107.21001 72.976257 107.67578 72.123047 C 108.98319 69.728297 113.81706 69.481622 114.00586 69.544922 C 118.39931 71.016562 124.60241 72.823986 124.70898 73.416016 C 125.17426 75.995396 131.42003 80.170048 134.33789 75.330078 C 138.3551 68.666628 130.94545 65.638611 127.75781 67.619141 C 127.60667 67.713051 111.94655 62.156591 98.796875 57.394531 C 97.957783 57.090664 97.210123 56.93309 96.550781 56.892578 z "
     id="path193" />
  <path
     style="display:inline;fill:#000000;stroke-width:5.40965509"
     d="M 190.06836 114.61914 C 190.18807 114.57532 190.3323 114.59226 190.44922 114.54297 C 191.40697 114.13922 192.26919 113.55503 192.99219 112.83203 C 193.71519 112.10903 194.29937 111.24681 194.70312 110.28906 C 195.01588 109.54717 195.11325 108.71081 195.18945 107.87305 C 195.28422 100.52808 195.17969 88.949219 195.17969 88.949219 L 188.74805 85.375 C 181.8067 81.28189 181.27907 79.976766 183.53711 72.472656 C 185.12382 67.199486 185.41223 56.032786 184.05273 52.503906 C 182.09405 47.419636 172.23985 45.551681 164.60352 44.587891 C 158.75266 43.849421 159.08396 46.989251 159.76562 48.238281 C 154.32649 50.177591 152.32903 53.645076 151.85352 55.759766 C 146.24614 61.535656 145.83982 63.453606 145.37891 64.347656 C 145.16031 64.771506 144.89763 65.16322 147.84961 66.59375 C 148.87793 68.32635 146.47912 69.110814 147.09766 69.683594 C 150.73701 73.054024 148.72272 73.815319 146.7793 74.037109 C 145.4619 74.187389 146.77674 75.648761 146.34375 77.462891 C 145.16884 80.009221 145.44604 81.026212 148.17969 82.320312 C 150.53245 83.434102 159.90274 83.156086 157.79102 86.785156 C 156.98336 88.173106 154.2096 91.085459 156.03125 92.511719 C 162.22833 97.363629 159.28319 97.403583 156.97656 100.43164 C 151.55084 107.55431 151.85558 113.26206 151.83398 114.36719 L 174.01562 114.54492 C 183.76795 114.54492 186.60715 114.59112 190.06836 114.61914 z "
     id="path13597" />
  <path
     style="fill:#ffffff;stroke:none;stroke-width:1px;stroke-linecap:butt;stroke-linejoin:miter;stroke-opacity:1;fill-opacity:1;opacity:0.15"
     d="M 64.3125 114.56445 C 65.245033 114.94358 66.258229 115.16992 67.330078 115.16992 L 187.33008 115.16992 C 188.43808 115.16992 189.49147 114.94672 190.44922 114.54297 C 191.40697 114.13922 192.26919 113.55503 192.99219 112.83203 C 193.71519 112.10903 194.29937 111.24681 194.70312 110.28906 C 195.10688 109.33131 195.33008 108.27792 195.33008 107.16992 L 195.33008 43.169922 C 195.33008 42.061922 195.10688 41.008531 194.70312 40.050781 C 194.29937 39.093031 193.71519 38.230812 192.99219 37.507812 C 192.26919 36.784813 191.40697 36.200625 190.44922 35.796875 C 189.49147 35.393125 188.43808 35.169922 187.33008 35.169922 L 147.32031 35.169922 C 113.33226 67.676987 76.65824 102.9825 64.3125 114.56445 z "
     id="path891" />
</svg>
